SVG-Logos/OCP & RH/Other RH Logos/processserver.svg

<svg xmlns="http://www.w3.org/2000/svg" viewBox="0 0 100 100"><g data-name="Layer 1"><circle cx="50" cy="50" r="50" style="fill:#d71e00" transform="rotate(-45 50 50)"/><path d="M85.36 14.64a50 50 0 0 1-70.72 70.72Z" style="fill:#c21a00"/><path d="M53.56 22.72v38.9l-6.17 2.55v12.25a27 27 0 0 0 2.73.3V66.46l6.17-2.55V23.06c-.9-.16-1.81-.27-2.73-.34Z" style="fill:#cdcdcd"/><path d="M51.54 20a30.14 30.14 0 0 0-4.15 60V64.17l6.17-2.55V20.09c-.67-.09-1.34-.09-2.02-.09ZM40.39 51.59a2.26 2.26 0 1 1 2.26-2.26 2.26 2.26 0 0 1-2.26 2.26Z" style="fill:#fff"/><circle cx="40.39" cy="49.33" r="2.26"/><circle cx="62.7" cy="49.33" r="2.26"/><path d="M56.29 23.06v40.85l-6.17 2.55V76.7c.47 0 .95.05 1.43.05a27.06 27.06 0 0 0 4.74-53.69Zm6.41 28.53a2.26 2.26 0 1 1 2.3-2.26 2.26 2.26 0 0 1-2.3 2.26Z" style="fill:#eaeaea"/></g></svg>

<svg xmlns="http://www.w3.org/2000/svg" viewBox="0 0 100 100"><defs><style>.cls-1{fill:#d71e00;}.cls-2{fill:#c21a00;}.cls-3{fill:#cdcdcd;}.cls-4{fill:#fff;}.cls-5{fill:#eaeaea;}</style></defs><title>Logo</title><g id="Layer_1" data-name="Layer 1"><circle class="cls-1" cx="50" cy="50" r="50" transform="translate(-20.71 50) rotate(-45)"/><path class="cls-2" d="M85.36,14.64A50,50,0,0,1,14.64,85.36Z"/><path class="cls-3" d="M53.56,22.72v38.9l-6.17,2.55V76.42a27,27,0,0,0,2.73.3V66.46l6.17-2.55V23.06C55.39,22.9,54.48,22.79,53.56,22.72Z"/><path class="cls-4" d="M51.54,20a30.14,30.14,0,0,0-4.15,60V64.17l6.17-2.55V20.09C52.89,20,52.22,20,51.54,20ZM40.39,51.59a2.26,2.26,0,1,1,2.26-2.26A2.26,2.26,0,0,1,40.39,51.59Z"/><circle cx="40.39" cy="49.33" r="2.26"/><circle cx="62.7" cy="49.33" r="2.26"/><path class="cls-5" d="M56.29,23.06V63.91l-6.17,2.55V76.7c.47,0,.95.05,1.43.05a27.06,27.06,0,0,0,4.74-53.69ZM62.7,51.59A2.26,2.26,0,1,1,65,49.33,2.26,2.26,0,0,1,62.7,51.59Z"/></g></svg>
